X:376
T:B376-  Pretty Peggy Benson
Q:1/4=120
L:1/8
M:6/8
K:D
D|FG A AB =c|BAB G2z|F3fa2|f3Azg|(fa) f (ed) c|\
(dc) B (AG) F| GB2Af2{e/}|d3D2|]

